src/lib/packages/icons/src/assets/line/arrow-down-circle.svg

<svg width="24" height="24" viewBox="0 0 24 24" fill="none" xmlns="http://www.w3.org/2000/svg">
<path d="M12 1.25C6.072 1.25 1.25 6.072 1.25 12C1.25 17.928 6.072 22.75 12 22.75C17.928 22.75 22.75 17.928 22.75 12C22.75 6.072 17.928 1.25 12 1.25ZM12 21.25C6.899 21.25 2.75 17.101 2.75 12C2.75 6.899 6.899 2.75 12 2.75C17.101 2.75 21.25 6.899 21.25 12C21.25 17.101 17.101 21.25 12 21.25ZM15.53 12.47C15.823 12.763 15.823 13.238 15.53 13.531L12.53 16.531C12.461 16.6 12.3781 16.6551 12.2871 16.6931C12.1961 16.7311 12.098 16.751 12 16.751C11.902 16.751 11.8049 16.7311 11.7129 16.6931C11.6209 16.6551 11.539 16.6 11.47 16.531L8.46997 13.531C8.17697 13.238 8.17697 12.763 8.46997 12.47C8.76297 12.177 9.23801 12.177 9.53101 12.47L11.251 14.1899V8C11.251 7.586 11.587 7.25 12.001 7.25C12.415 7.25 12.751 7.586 12.751 8V14.189L14.4709 12.469C14.7629 12.177 15.237 12.177 15.53 12.47Z" fill="currentColor"/>
</svg>

<svg xmlns="http://www.w3.org/2000/svg" width="24" height="24" fill="none"><path fill="currentColor" d="M12 1.25C6.072 1.25 1.25 6.072 1.25 12S6.072 22.75 12 22.75 22.75 17.928 22.75 12 17.928 1.25 12 1.25Zm0 20c-5.101 0-9.25-4.149-9.25-9.25S6.899 2.75 12 2.75s9.25 4.149 9.25 9.25-4.149 9.25-9.25 9.25Zm3.53-8.78a.75.75 0 0 1 0 1.061l-3 3a.755.755 0 0 1-.817.162.745.745 0 0 1-.243-.162l-3-3a.75.75 0 1 1 1.061-1.061l1.72 1.72V8a.75.75 0 0 1 1.5 0v6.189l1.72-1.72a.749.749 0 0 1 1.059.001Z"/></svg>
